landing/img/define-location.svg

<svg version="1.1" xmlns="http://www.w3.org/2000/svg" xmlns:xlink="http://www.w3.org/1999/xlink" viewBox="0 0 172 172"><g fill="none" fill-rule="nonzero" stroke="none" stroke-width="1" stroke-linecap="butt" stroke-linejoin="miter" stroke-miterlimit="10" stroke-dasharray="" stroke-dashoffset="0" font-family="none" font-weight="none" font-size="none" text-anchor="none" style="mix-blend-mode: normal"><path d="M0,172v-172h172v172z" fill="none"></path><g><path d="M22.36,46.44c-1.89986,0 -3.44,1.54014 -3.44,3.44c0,1.89986 1.54014,3.44 3.44,3.44c1.89986,0 3.44,-1.54014 3.44,-3.44c0,-1.89986 -1.54014,-3.44 -3.44,-3.44z" fill="#ee3e54"></path><path d="M132.44,20.64c-0.94993,0 -1.72,0.77007 -1.72,1.72c0,0.94993 0.77007,1.72 1.72,1.72c0.94993,0 1.72,-0.77007 1.72,-1.72c0,-0.94993 -0.77007,-1.72 -1.72,-1.72z" fill="#f1bc19"></path><path d="M86,22.36c-35.1474,0 -63.64,28.4926 -63.64,63.64c0,35.1474 28.4926,63.64 63.64,63.64c35.1474,0 63.64,-28.4926 63.64,-63.64c0,-35.1474 -28.4926,-63.64 -63.64,-63.64z" fill="#fce0a2"></path><path d="M142.76,18.92c-3.79972,0 -6.88,3.08028 -6.88,6.88c0,3.79972 3.08028,6.88 6.88,6.88c3.79972,0 6.88,-3.08028 6.88,-6.88c0,-3.79972 -3.08028,-6.88 -6.88,-6.88z" fill="#f1bc19"></path><path d="M149.64,37.84c-1.89986,0 -3.44,1.54014 -3.44,3.44c0,1.89986 1.54014,3.44 3.44,3.44c1.89986,0 3.44,-1.54014 3.44,-3.44c0,-1.89986 -1.54014,-3.44 -3.44,-3.44z" fill="#ee3e54"></path><path d="M139.32,127.28c-1.89986,0 -3.44,1.54014 -3.44,3.44c0,1.89986 1.54014,3.44 3.44,3.44c1.89986,0 3.44,-1.54014 3.44,-3.44c0,-1.89986 -1.54014,-3.44 -3.44,-3.44zM25.8,101.48c-3.79972,0 -6.88,3.08028 -6.88,6.88c0,3.79972 3.08028,6.88 6.88,6.88c3.79972,0 6.88,-3.08028 6.88,-6.88c0,-3.79972 -3.08028,-6.88 -6.88,-6.88z" fill="#fbcd59"></path><path d="M43,146.2c-1.89986,0 -3.44,1.54014 -3.44,3.44c0,1.89986 1.54014,3.44 3.44,3.44c1.89986,0 3.44,-1.54014 3.44,-3.44c0,-1.89986 -1.54014,-3.44 -3.44,-3.44z" fill="#ee3e54"></path><path d="M31.82,87.72c-2.37482,0 -4.3,1.92518 -4.3,4.3c0,2.37482 1.92518,4.3 4.3,4.3c2.37482,0 4.3,-1.92518 4.3,-4.3c0,-2.37482 -1.92518,-4.3 -4.3,-4.3z" fill="#ffffff"></path><path d="M36.12,113.52c-0.94993,0 -1.72,0.77007 -1.72,1.72c0,0.94993 0.77007,1.72 1.72,1.72c0.94993,0 1.72,-0.77007 1.72,-1.72c0,-0.94993 -0.77007,-1.72 -1.72,-1.72z" fill="#f1bc19"></path><path d="M137.6,56.76c-0.94993,0 -1.72,0.77007 -1.72,1.72c0,0.94993 0.77007,1.72 1.72,1.72c0.94993,0 1.72,-0.77007 1.72,-1.72c0,-0.94993 -0.77007,-1.72 -1.72,-1.72z" fill="#ffffff"></path><g><path d="M129,82.56h-5.3234c-1.6426,-18.12364 -16.11296,-32.594 -34.2366,-34.2366v-6.1834c0,-1.89888 -1.54112,-3.44 -3.44,-3.44c-1.89888,0 -3.44,1.54112 -3.44,3.44v6.17652c-16.83364,1.51704 -30.77252,14.0696 -33.80316,30.96c-0.19436,1.0836 -0.33884,2.18096 -0.4386,3.28348h-5.31824c-1.89888,0 -3.44,1.54112 -3.44,3.44c0,1.89888 1.54112,3.44 3.44,3.44h5.32856c0.08084,0.90472 0.18232,1.80772 0.32852,2.69868c2.8122,17.22752 16.79924,30.0226 33.90292,31.54824v6.17308c0,1.89888 1.54112,3.44 3.44,3.44c1.89888,0 3.44,-1.54112 3.44,-3.44v-6.1834c18.12364,-1.6426 32.594,-16.11296 34.2366,-34.2366h5.3234c1.89888,0 3.44,-1.54112 3.44,-3.44c0,-1.89888 -1.54112,-3.44 -3.44,-3.44zM89.44,116.75704v-14.41704c0,-1.89888 -1.54112,-3.44 -3.44,-3.44c-1.89888,0 -3.44,1.54112 -3.44,3.44v14.41188c-13.70668,-1.50156 -24.84884,-11.8422 -27.1158,-25.71916c-0.086,-0.52632 -0.13416,-1.05952 -0.19264,-1.59272h15.26844c1.89888,0 3.44,-1.54112 3.44,-3.44c0,-1.89888 -1.54112,-3.44 -3.44,-3.44h-15.26672c0.0774,-0.69144 0.15308,-1.38632 0.27692,-2.06744c2.44068,-13.6052 13.54328,-23.74804 27.03152,-25.241v14.40844c0,1.89888 1.54112,3.44 3.44,3.44c1.89888,0 3.44,-1.54112 3.44,-3.44v-14.41704c14.32416,1.59272 25.7226,12.99116 27.31532,27.31704h-15.27704c-1.89888,0 -3.44,1.54112 -3.44,3.44c0,1.89888 1.54112,3.44 3.44,3.44h15.27704c-1.59272,14.32588 -12.99116,25.72432 -27.31704,27.31704z" fill="#60be92"></path><path d="M86,134.504c-2.56108,0 -4.644,-2.08292 -4.644,-4.644v-5.08776c-17.22236,-2.02272 -31.07524,-15.21684 -33.88744,-32.43748c-0.09288,-0.559 -0.16684,-1.12316 -0.23048,-1.68904h-4.23808c-2.56108,0 -4.644,-2.08292 -4.644,-4.644c0,-2.56108 2.08292,-4.644 4.644,-4.644h4.23292c0.09116,-0.78088 0.20468,-1.548 0.33884,-2.29276c3.0272,-16.87664 16.83536,-29.82136 33.78424,-31.83204v-5.09292c0,-2.56108 2.08292,-4.644 4.644,-4.644c2.56108,0 4.644,2.08292 4.644,4.644v5.09808c17.88628,2.12592 31.992,16.23164 34.11792,34.11792h4.23808c2.56108,0 4.644,2.08292 4.644,4.644c0,2.56108 -2.08292,4.644 -4.644,4.644h-4.23808c-2.12592,17.88628 -16.23164,31.992 -34.11792,34.11792v5.09808c0,2.56108 -2.08292,4.644 -4.644,4.644zM43,83.764c-1.23324,0 -2.236,1.00276 -2.236,2.236c0,1.23324 1.00276,2.236 2.236,2.236h6.42936l0.09804,1.09736c0.0774,0.87548 0.17544,1.74924 0.31648,2.61268c2.69524,16.50168 16.19208,29.06112 32.82448,30.54204l1.09564,0.09632v7.2756c0,1.23324 1.00276,2.236 2.236,2.236c1.23324,0 2.236,-1.00276 2.236,-2.236v-7.28248l1.09564,-0.09976c17.61108,-1.59616 31.55168,-15.53504 33.14612,-33.14612l0.09976,-1.09564h6.42248c1.23324,0 2.236,-1.00276 2.236,-2.236c0,-1.23324 -1.00276,-2.236 -2.236,-2.236h-6.42248l-0.09976,-1.09564c-1.59616,-17.61108 -15.53504,-31.54996 -33.14612,-33.14612l-1.09564,-0.09976v-7.28248c0,-1.23324 -1.00276,-2.236 -2.236,-2.236c-1.23324,0 -2.236,1.00276 -2.236,2.236v7.2756l-1.09736,0.09976c-16.36752,1.47404 -29.8248,13.79956 -32.72472,29.97444c-0.18404,1.02168 -0.3268,2.0898 -0.42484,3.17856l-0.09976,1.09564zM88.236,118.10208v-15.76208c0,-1.23324 -1.00276,-2.236 -2.236,-2.236c-1.23324,0 -2.236,1.00276 -2.236,2.236v15.7552l-1.33472,-0.1462c-14.27428,-1.56348 -25.85848,-12.55428 -28.17188,-26.72192c-0.07224,-0.43688 -0.11868,-0.87892 -0.16684,-1.31924l-0.18232,-1.67184h16.61176c1.23324,0 2.236,-1.00276 2.236,-2.236c0,-1.23324 -1.00276,-2.236 -2.236,-2.236h-16.61348l0.14964,-1.33816c0.08084,-0.72412 0.16168,-1.44136 0.28896,-2.14656c2.49056,-13.88556 14.03864,-24.66996 28.08244,-26.22312l1.33644,-0.14964v15.75348c0,1.23324 1.00276,2.236 2.236,2.236c1.23324,0 2.236,-1.00276 2.236,-2.236v-15.76208l1.33644,0.14964c14.79888,1.64432 26.73568,13.58112 28.38,28.38l0.14964,1.33644h-16.62208c-1.23324,0 -2.236,1.00276 -2.236,2.236c0,1.23324 1.00276,2.236 2.236,2.236h16.62208l-0.14964,1.33644c-1.64432,14.79888 -13.58112,26.73568 -28.38,28.38zM86,97.696c2.56108,0 4.644,2.08292 4.644,4.644v13.03932c12.62308,-1.99692 22.7384,-12.11224 24.73532,-24.73532h-13.89932c-2.56108,0 -4.644,-2.08292 -4.644,-4.644c0,-2.56108 2.08292,-4.644 4.644,-4.644h13.89932c-1.99692,-12.62308 -12.11224,-22.7384 -24.73532,-24.73532v13.03932c0,2.56108 -2.08292,4.644 -4.644,4.644c-2.56108,0 -4.644,-2.08292 -4.644,-4.644v-13.03244c-12.38228,1.95048 -22.41676,11.67708 -24.64072,24.07828c-0.03956,0.215 -0.07396,0.43172 -0.10492,0.65016h13.90964c2.56108,0 4.644,2.08292 4.644,4.644c0,2.56108 -2.08292,4.644 -4.644,4.644h-13.91652c0.0086,0.06536 0.01892,0.129 0.02924,0.19436c2.06744,12.66092 12.13976,22.57672 24.72328,24.53924v-13.0376c0,-2.56108 2.08292,-4.644 4.644,-4.644z" fill="#472b29"></path></g><g fill="#472b29"><path d="M64.10956,78.66592c-0.04644,0 -0.09632,-0.0086 -0.14448,-0.0258c-0.2236,-0.07912 -0.34056,-0.32336 -0.25972,-0.54868c2.322,-6.54804 7.37708,-11.72008 13.86836,-14.19688c0.22188,-0.08944 0.46956,0.0258 0.55384,0.2494c0.086,0.22188 -0.02752,0.46956 -0.2494,0.55384c-6.25564,2.38564 -11.1284,7.37192 -13.36612,13.6826c-0.05848,0.17716 -0.22532,0.28552 -0.40248,0.28552z"></path></g><g fill="#472b29"><path d="M78.2084,108.31012c-0.04816,0 -0.09632,-0.0086 -0.14448,-0.0258c-6.74928,-2.40284 -11.9884,-7.65572 -14.36888,-14.41188c-0.07912,-0.2236 0.03784,-0.46784 0.26144,-0.54696c0.22532,-0.0774 0.46784,0.03784 0.54696,0.26144c2.2618,6.41388 7.439,11.60484 13.84944,13.88728c0.2236,0.07912 0.34056,0.32508 0.25972,0.54868c-0.06192,0.17716 -0.22876,0.28724 -0.4042,0.28724z"></path></g><g fill="#472b29"><path d="M93.3616,108.45976c-0.17888,0 -0.34744,-0.11352 -0.40764,-0.29412c-0.07568,-0.22532 0.04644,-0.46784 0.27176,-0.54352c6.80088,-2.27212 12.19652,-7.697 14.43252,-14.5082c0.07396,-0.2236 0.31132,-0.34916 0.5418,-0.27348c0.22532,0.07396 0.34744,0.31648 0.27348,0.5418c-2.32028,7.06748 -7.91888,12.69532 -14.97604,15.05516c-0.04472,0.01548 -0.08944,0.02236 -0.13588,0.02236z"></path></g><g fill="#472b29"><path d="M107.9472,78.82932c-0.17888,0 -0.344,-0.11008 -0.40592,-0.28896c-0.91504,-2.64536 -2.30136,-5.07916 -4.1194,-7.23432c-0.15308,-0.1806 -0.129,-0.45408 0.0516,-0.60716c0.17888,-0.1548 0.45408,-0.13072 0.60716,0.0516c1.88512,2.236 3.32304,4.76096 4.27248,7.50608c0.0774,0.22532 -0.04128,0.46956 -0.26488,0.54696c-0.04816,0.01892 -0.0946,0.0258 -0.14104,0.0258z"></path></g><g fill="#472b29"><path d="M101.01388,68.71572c-0.09976,0 -0.19608,-0.0344 -0.27864,-0.1032c-2.0296,-1.72172 -4.31892,-3.0616 -6.79916,-3.98352c-0.2236,-0.08256 -0.3354,-0.33024 -0.25284,-0.55212c0.08256,-0.2236 0.33368,-0.3354 0.55212,-0.25284c2.57656,0.95632 4.95016,2.3478 7.05888,4.13488c0.17888,0.15308 0.20296,0.42484 0.04816,0.60716c-0.086,0.09804 -0.20812,0.14964 -0.32852,0.14964z"></path></g></g></g></svg>

<svg xmlns="http://www.w3.org/2000/svg" viewBox="0 0 172 172"><g fill="none" stroke-miterlimit="10" font-family="none" font-weight="none" font-size="none" text-anchor="none" style="mix-blend-mode:normal"><path d="M0 172V0h172v172z"/><path d="M22.36 46.44a3.44 3.44 0 100 6.88 3.44 3.44 0 000-6.88z" fill="#ee3e54"/><path d="M132.44 20.64a1.72 1.72 0 100 3.44 1.72 1.72 0 000-3.44z" fill="#f1bc19"/><path d="M86 22.36c-35.147 0-63.64 28.493-63.64 63.64 0 35.147 28.493 63.64 63.64 63.64 35.147 0 63.64-28.493 63.64-63.64 0-35.147-28.493-63.64-63.64-63.64z" fill="#fce0a2"/><path d="M142.76 18.92a6.88 6.88 0 100 13.76 6.88 6.88 0 000-13.76z" fill="#f1bc19"/><path d="M149.64 37.84a3.44 3.44 0 100 6.88 3.44 3.44 0 000-6.88z" fill="#ee3e54"/><path d="M139.32 127.28a3.44 3.44 0 100 6.88 3.44 3.44 0 000-6.88zM25.8 101.48a6.88 6.88 0 100 13.76 6.88 6.88 0 000-13.76z" fill="#fbcd59"/><path d="M43 146.2a3.44 3.44 0 100 6.88 3.44 3.44 0 000-6.88z" fill="#ee3e54"/><path d="M31.82 87.72a4.3 4.3 0 100 8.6 4.3 4.3 0 000-8.6z" fill="#fff"/><path d="M36.12 113.52a1.72 1.72 0 100 3.44 1.72 1.72 0 000-3.44z" fill="#f1bc19"/><path d="M137.6 56.76a1.72 1.72 0 100 3.44 1.72 1.72 0 000-3.44z" fill="#fff"/><path d="M129 82.56h-5.323c-1.643-18.124-16.113-32.594-34.237-34.237V42.14A3.441 3.441 0 0086 38.7a3.441 3.441 0 00-3.44 3.44v6.177c-16.834 1.517-30.773 14.07-33.803 30.96a38.013 38.013 0 00-.439 3.283H43A3.441 3.441 0 0039.56 86 3.441 3.441 0 0043 89.44h5.329c.08.905.182 1.808.328 2.699 2.812 17.227 16.8 30.022 33.903 31.548v6.173A3.441 3.441 0 0086 133.3a3.441 3.441 0 003.44-3.44v-6.183c18.124-1.643 32.594-16.113 34.237-34.237H129a3.441 3.441 0 003.44-3.44 3.441 3.441 0 00-3.44-3.44zm-39.56 34.197V102.34A3.441 3.441 0 0086 98.9a3.441 3.441 0 00-3.44 3.44v14.412c-13.707-1.502-24.849-11.842-27.116-25.72-.086-.526-.134-1.059-.192-1.592H70.52A3.441 3.441 0 0073.96 86a3.441 3.441 0 00-3.44-3.44H55.253c.078-.691.153-1.386.277-2.067 2.44-13.606 13.543-23.748 27.032-25.241V69.66a3.441 3.441 0 003.44 3.44 3.441 3.441 0 003.44-3.44V55.243c14.324 1.593 25.722 12.991 27.315 27.317H101.48A3.441 3.441 0 0098.04 86a3.441 3.441 0 003.44 3.44h15.277c-1.593 14.326-12.991 25.724-27.317 27.317z" fill="#60be92"/><path d="M86 134.504a4.649 4.649 0 01-4.644-4.644v-5.088c-17.222-2.022-31.075-15.217-33.887-32.437a32.4 32.4 0 01-.23-1.69H43a4.649 4.649 0 01-4.644-4.643A4.649 4.649 0 0143 81.358h4.233a37.47 37.47 0 01.339-2.293c3.027-16.877 16.835-29.821 33.784-31.832V42.14A4.649 4.649 0 0186 37.496a4.649 4.649 0 014.644 4.644v5.098c17.886 2.126 31.992 16.232 34.118 34.118H129A4.649 4.649 0 01133.644 86 4.649 4.649 0 01129 90.644h-4.238c-2.126 17.886-16.232 31.992-34.118 34.118v5.098A4.649 4.649 0 0186 134.504zm-43-50.74A2.238 2.238 0 0040.764 86 2.238 2.238 0 0043 88.236h6.43l.097 1.097c.078.876.176 1.75.317 2.613 2.695 16.502 16.192 29.061 32.824 30.542l1.096.096v7.276A2.238 2.238 0 0086 132.096a2.238 2.238 0 002.236-2.236v-7.282l1.096-.1c17.61-1.596 31.551-15.535 33.146-33.146l.1-1.096H129A2.238 2.238 0 00131.236 86 2.238 2.238 0 00129 83.764h-6.422l-.1-1.096c-1.596-17.61-15.535-31.55-33.146-33.146l-1.096-.1V42.14A2.238 2.238 0 0086 39.904a2.238 2.238 0 00-2.236 2.236v7.276l-1.097.1C66.299 50.988 52.842 63.314 49.942 79.49a36.429 36.429 0 00-.425 3.178l-.1 1.096zm45.236 34.338V102.34A2.238 2.238 0 0086 100.104a2.238 2.238 0 00-2.236 2.236v15.755l-1.335-.146c-14.274-1.563-25.858-12.554-28.172-26.722-.072-.437-.118-.879-.166-1.32l-.183-1.671H70.52A2.238 2.238 0 0072.756 86a2.238 2.238 0 00-2.236-2.236H53.907l.15-1.338c.08-.724.16-1.442.288-2.147 2.49-13.885 14.039-24.67 28.083-26.223l1.336-.15V69.66A2.238 2.238 0 0086 71.896a2.238 2.238 0 002.236-2.236V53.898l1.336.15c14.8 1.644 26.736 13.58 28.38 28.38l.15 1.336H101.48A2.238 2.238 0 0099.244 86a2.238 2.238 0 002.236 2.236h16.622l-.15 1.336c-1.644 14.8-13.58 26.736-28.38 28.38zM86 97.696a4.649 4.649 0 014.644 4.644v13.04c12.623-1.998 22.738-12.113 24.735-24.736H101.48A4.649 4.649 0 0196.836 86a4.649 4.649 0 014.644-4.644h13.9c-1.998-12.623-12.113-22.738-24.736-24.735V69.66A4.649 4.649 0 0186 74.304a4.649 4.649 0 01-4.644-4.644V56.628c-12.382 1.95-22.417 11.677-24.64 24.078-.04.215-.075.432-.106.65h13.91A4.649 4.649 0 0175.164 86a4.649 4.649 0 01-4.644 4.644H56.603l.03.194c2.067 12.661 12.14 22.577 24.723 24.54V102.34A4.649 4.649 0 0186 97.696z" fill="#472b29"/><path d="M64.11 78.666a.427.427 0 01-.404-.574 23.623 23.623 0 0113.868-14.197c.222-.09.47.025.554.249a.428.428 0 01-.25.554A22.765 22.765 0 0064.512 78.38a.42.42 0 01-.402.286zm14.098 29.644a.427.427 0 01-.144-.026 23.54 23.54 0 01-14.369-14.412.428.428 0 11.808-.285c2.262 6.414 7.44 11.605 13.85 13.887a.43.43 0 01.26.549.43.43 0 01-.405.287zm15.154.15a.43.43 0 01-.136-.838c6.8-2.272 12.196-7.697 14.432-14.508a.429.429 0 11.815.268c-2.32 7.068-7.918 12.696-14.976 15.055a.41.41 0 01-.135.023zm14.585-29.63a.428.428 0 01-.406-.29 22.681 22.681 0 00-4.12-7.234.432.432 0 01.052-.607.43.43 0 01.608.051 23.547 23.547 0 014.272 7.507.43.43 0 01-.406.572zm-6.933-10.114a.43.43 0 01-.279-.103 22.723 22.723 0 00-6.799-3.984.429.429 0 11.3-.805 23.58 23.58 0 017.058 4.135.432.432 0 01.048.607.439.439 0 01-.328.15z" fill="#472b29"/></g></svg>
